build/images/icon-pickup.svg

<svg width="44" height="44" viewBox="0 0 44 44" fill="none" xmlns="http://www.w3.org/2000/svg">
<g clip-path="url(#clip0)">
<path d="M21.9996 44C21.7074 44 21.4353 43.8515 21.2771 43.6059L17.2895 37.4142C13.327 36.402 9.74354 34.0916 7.16859 30.881C4.47918 27.5276 2.99805 23.3087 2.99805 19.0015C2.99805 13.926 4.97461 9.15432 8.56353 5.5654C12.1524 1.97648 16.924 0 21.9996 0C27.0752 0 31.8468 1.97648 35.4358 5.5654C39.0247 9.15432 41.0012 13.926 41.0012 19.0015C41.0012 23.3087 39.5201 27.5276 36.8307 30.8809C34.2558 34.0916 30.6723 36.402 26.7098 37.4142L22.7222 43.6059C22.5639 43.8515 22.2918 44 21.9996 44ZM21.9996 1.71875C12.4697 1.71875 4.71671 9.47177 4.71671 19.0014C4.71671 27.0625 10.1887 33.9805 18.0236 35.8246C18.2403 35.8756 18.4287 36.0088 18.5492 36.1958L21.9996 41.5534L25.4499 36.1958C25.5704 36.0087 25.7589 35.8756 25.9755 35.8246C33.8104 33.9805 39.2824 27.0625 39.2824 19.0014C39.2825 9.47177 31.5295 1.71875 21.9996 1.71875Z" fill="#020288"/>
<path d="M22.0001 31.4037C28.8497 31.4037 34.4025 25.851 34.4025 19.0014C34.4025 12.1519 28.8497 6.59918 22.0001 6.59918C15.1504 6.59918 9.59766 12.1519 9.59766 19.0014C9.59766 25.851 15.1504 31.4037 22.0001 31.4037Z" fill="#E2C4FF"/>
<path d="M27.2144 13.5746H25.2684V13.4337C25.2684 11.6213 23.7982 10.1469 21.9912 10.1469C20.1841 10.1469 18.7138 11.6213 18.7138 13.4337V13.5746H16.7852C16.3105 13.5746 15.9258 13.9594 15.9258 14.434V23.0732C15.9258 24.5567 17.1327 25.7636 18.6161 25.7636H25.3835C26.867 25.7636 28.0738 24.5567 28.0738 23.0732V14.434C28.0738 13.9594 27.6891 13.5746 27.2144 13.5746ZM20.4326 13.4337C20.4326 12.5691 21.1318 11.8657 21.9912 11.8657C22.8505 11.8657 23.5496 12.5691 23.5496 13.4337V13.5746H20.4326V13.4337ZM26.3551 23.0732C26.3551 23.6089 25.9193 24.0448 25.3835 24.0448H18.6161C18.0803 24.0448 17.6445 23.609 17.6445 23.0732V15.2934H18.7138V16.798C18.7138 17.2726 19.0986 17.6573 19.5732 17.6573C20.0479 17.6573 20.4326 17.2726 20.4326 16.798V15.2934H23.5496V16.798C23.5496 17.2726 23.9344 17.6573 24.409 17.6573C24.8836 17.6573 25.2684 17.2726 25.2684 16.798V15.2934H26.3551V23.0732Z" fill="#020288"/>
</g>
<defs>
<clipPath id="clip0">
<rect width="44" height="44" fill="white"/>
</clipPath>
</defs>
</svg>

<svg width="44" height="44" fill="none" xmlns="http://www.w3.org/2000/svg"><g clip-path="url(#clip0)"><path d="M22 44a.86.86 0 01-.723-.394l-3.988-6.192a19.095 19.095 0 01-10.12-6.533 19.052 19.052 0 01-4.17-11.88A18.873 18.873 0 018.564 5.565 18.877 18.877 0 0122 0c5.075 0 9.847 1.976 13.436 5.565A18.877 18.877 0 0141 19.001c0 4.308-1.48 8.527-4.17 11.88a19.095 19.095 0 01-10.121 6.533l-3.988 6.192A.86.86 0 0122 44zm0-42.281C12.47 1.719 4.717 9.472 4.717 19c0 8.061 5.472 14.98 13.307 16.824a.86.86 0 01.525.37L22 41.554l3.45-5.357a.86.86 0 01.526-.371C33.81 33.98 39.282 27.062 39.282 19 39.282 9.471 31.53 1.72 22 1.72z" fill="#020288"/><path d="M22 31.404c6.85 0 12.403-5.553 12.403-12.403C34.403 12.151 28.85 6.6 22 6.6c-6.85 0-12.402 5.553-12.402 12.402 0 6.85 5.552 12.403 12.402 12.403z" fill="#E2C4FF"/><path d="M27.214 13.575h-1.946v-.141a3.286 3.286 0 00-3.277-3.287 3.286 3.286 0 00-3.277 3.287v.14h-1.929a.86.86 0 00-.86.86v8.64a2.693 2.693 0 002.691 2.69h6.768a2.693 2.693 0 002.69-2.69v-8.64a.86.86 0 00-.86-.86zm-6.781-.141c0-.865.699-1.568 1.558-1.568.86 0 1.559.703 1.559 1.568v.14h-3.117v-.14zm5.922 9.64a.973.973 0 01-.971.97h-6.768a.973.973 0 01-.971-.97v-7.78h1.069v1.504a.86.86 0 001.719 0v-1.505h3.117v1.505a.86.86 0 001.718 0v-1.505h1.087v7.78z" fill="#020288"/></g><defs><clipPath id="clip0"><path fill="#fff" d="M0 0h44v44H0z"/></clipPath></defs></svg>
